public/svgs/folderplus.svg

<svg width="24" height="24" viewBox="0 0 24 24" fill="none" xmlns="http://www.w3.org/2000/svg">
<path fill-rule="evenodd" clip-rule="evenodd" d="M20.0001 15.4185C19.0737 15.7935 18.061 16 17.0001 16C12.5818 16 9.00009 12.4183 9.00009 8H2V18.5C2 19.3284 2.67158 20 3.5 20H18.5001C19.3285 20 20.0001 19.3284 20.0001 18.5V15.4185Z" fill="#7F7F7F"/>
<path fill-rule="evenodd" clip-rule="evenodd" d="M17 15C20.866 15 24 11.866 24 8C24 4.13401 20.866 1 17 1C13.134 1 10 4.13401 10 8C10 11.866 13.134 15 17 15ZM17.75 5C17.75 4.58579 17.4142 4.25 17 4.25C16.5858 4.25 16.25 4.58579 16.25 5V7.25H14C13.5858 7.25 13.25 7.58579 13.25 8C13.25 8.41421 13.5858 8.75 14 8.75H16.25V11C16.25 11.4142 16.5858 11.75 17 11.75C17.4142 11.75 17.75 11.4142 17.75 11V8.75H20C20.4142 8.75 20.75 8.41421 20.75 8C20.75 7.58579 20.4142 7.25 20 7.25H17.75V5Z" fill="#7F7F7F"/>
<path fill-rule="evenodd" clip-rule="evenodd" d="M9.42384 5.42384L8.21967 4.21967C8.15003 4.15003 8.06735 4.09478 7.97635 4.05709C7.88536 4.0194 7.78783 4 7.68934 4H2.75C2.55109 4 2.36032 4.07902 2.21967 4.21967C2.07902 4.36032 2 4.55109 2 4.75V7H9.06189C9.12976 6.45575 9.2523 5.92847 9.42384 5.42384Z" fill="#7F7F7F"/>
</svg>

<svg width="24" height="24" fill="none" xmlns="http://www.w3.org/2000/svg"><path fill-rule="evenodd" clip-rule="evenodd" d="M20 15.418A8 8 0 0 1 9 8H2v10.5A1.5 1.5 0 0 0 3.5 20h15a1.5 1.5 0 0 0 1.5-1.5v-3.082Z" fill="#7F7F7F"/><path fill-rule="evenodd" clip-rule="evenodd" d="M17 15a7 7 0 1 0 0-14 7 7 0 0 0 0 14Zm.75-10a.75.75 0 0 0-1.5 0v2.25H14a.75.75 0 0 0 0 1.5h2.25V11a.75.75 0 0 0 1.5 0V8.75H20a.75.75 0 0 0 0-1.5h-2.25V5ZM9.424 5.424 8.22 4.22A.75.75 0 0 0 7.69 4H2.75a.75.75 0 0 0-.75.75V7h7.062c.068-.544.19-1.072.362-1.576Z" fill="#7F7F7F"/></svg>
